X: 96
T:Lady Flashdash Hornpipe
M:C
L:1/8
Q:1/8=100
K:D
A2|dcdf ecAc|dBGB AFDF|GABc dfed|c2 A2 A3 A|
dAAA eAAA|gfed dcBA|dBGB  AGFE|F2 D2 D2:||
A2|dcdA FDFA|BGBG cAcA|Bdce dfed|c2 A2 A3 A|
Ad d2 Ae e2|Af f2 Ag g2|fefd Bgec|d2 dd d2:||
